build/img/sprite/icon-search.svg

<svg width="17" height="17" viewBox="0 0 17 17" fill="none" xmlns="http://www.w3.org/2000/svg">
<path fill-rule="evenodd" clip-rule="evenodd" d="M11.9579 10.9565L16.7923 15.7909C17.0692 16.0678 17.0692 16.5155 16.7923 16.7924C16.6542 16.9306 16.4729 17 16.2915 17C16.1101 17 15.9288 16.9306 15.7907 16.7924L10.9564 11.9581C9.7997 12.8945 8.32991 13.4583 6.7291 13.4583C3.01889 13.4583 0 10.4394 0 6.72914C0 3.01889 3.01886 0 6.72907 0C10.4393 0 13.4582 3.01893 13.4582 6.72918C13.4582 8.33 12.8944 9.7998 11.9579 10.9565ZM1.41666 6.72914C1.41666 9.65882 3.79946 12.0416 6.7291 12.0416C9.65872 12.0416 12.0415 9.65882 12.0415 6.72914C12.0415 3.79947 9.65875 1.41664 6.7291 1.41664C3.79946 1.41664 1.41666 3.79947 1.41666 6.72914Z"/>
</svg>

<svg width="17" height="17" fill="none" xmlns="http://www.w3.org/2000/svg"><path clip-rule="evenodd" d="M11.958 10.957l4.834 4.834a.708.708 0 11-1.001 1.001l-4.835-4.834a6.697 6.697 0 01-4.227 1.5A6.737 6.737 0 010 6.73C0 3.02 3.019 0 6.73 0c3.71 0 6.728 3.019 6.728 6.73 0 1.6-.564 3.07-1.5 4.226zM1.417 6.729a5.318 5.318 0 005.312 5.313 5.318 5.318 0 005.312-5.313A5.318 5.318 0 006.73 1.417a5.318 5.318 0 00-5.312 5.312z"/></svg>
